img/sm/brawlstars.svg

<?xml version="1.0" encoding="UTF-8"?>
<svg width="194px" height="194px" viewBox="0 0 194 194" version="1.1" xmlns="http://www.w3.org/2000/svg" xmlns:xlink="http://www.w3.org/1999/xlink">
    <!-- Generator: Sketch 54 (76480) - https://sketchapp.com -->
    <title>形状结合</title>
    <desc>Created with Sketch.</desc>
    <g id="页面1" stroke="none" stroke-width="1" fill="none" fill-rule="evenodd">
        <path d="M96.9286731,193.13176 C43.6331947,193.13176 0.428673098,149.927239 0.428673098,96.6317604 C0.428673098,43.336282 43.6331947,0.131760359 96.9286731,0.131760359 C150.224151,0.131760359 193.428673,43.336282 193.428673,96.6317604 C193.428673,149.927239 150.224151,193.13176 96.9286731,193.13176 Z M96.9286731,178.13176 C141.93988,178.13176 178.428673,141.642967 178.428673,96.6317604 C178.428673,51.6205533 141.93988,15.1317604 96.9286731,15.1317604 C51.917466,15.1317604 15.4286731,51.6205533 15.4286731,96.6317604 C15.4286731,141.642967 51.917466,178.13176 96.9286731,178.13176 Z M63.4286731,140.109659 C43.689726,129.877087 30.4286731,110.878407 30.4286731,89.1317604 C30.4286731,56.5469601 60.2017372,30.1317604 96.9286731,30.1317604 C133.655609,30.1317604 163.428673,56.5469601 163.428673,89.1317604 C163.428673,110.135813 151.057821,128.576367 132.427851,139.030982 C132.428396,139.064511 132.428673,139.098103 132.428673,139.13176 L132.428673,150.13176 C132.428673,153.445469 129.742382,156.13176 126.428673,156.13176 L69.4286731,156.13176 C66.1149646,156.13176 63.4286731,153.445469 63.4286731,150.13176 L63.4286731,140.109659 Z M79.4976657,77.422852 C77.8027079,79.2404717 77.902145,82.0879785 79.7197648,83.7829363 L87.7646555,91.2849183 C89.5822752,92.9798761 92.4297819,92.880439 94.1247398,91.0628192 C95.8196976,89.2451995 95.7202604,86.3976928 93.9026407,84.7027349 L85.85775,77.200753 C84.0401303,75.5057952 81.1926235,75.6052323 79.4976657,77.422852 Z M118.12474,77.422852 C116.429782,75.6052323 113.582275,75.5057952 111.764655,77.200753 L103.719765,84.7027349 C101.902145,86.3976928 101.802708,89.2451995 103.497666,91.0628192 C105.192624,92.880439 108.04013,92.9798761 109.85775,91.2849183 L117.902641,83.7829363 C119.72026,82.0879785 119.819698,79.2404717 118.12474,77.422852 Z M68.4286731,127.13176 C79.4743681,127.13176 88.4286731,118.177455 88.4286731,107.13176 C88.4286731,96.0860654 79.4743681,87.1317604 68.4286731,87.1317604 C57.3829781,87.1317604 48.4286731,96.0860654 48.4286731,107.13176 C48.4286731,118.177455 57.3829781,127.13176 68.4286731,127.13176 Z M129.428673,127.13176 C140.474368,127.13176 149.428673,118.177455 149.428673,107.13176 C149.428673,96.0860654 140.474368,87.1317604 129.428673,87.1317604 C118.382978,87.1317604 109.428673,96.0860654 109.428673,107.13176 C109.428673,118.177455 118.382978,127.13176 129.428673,127.13176 Z M97.9286731,114.13176 L88.4286731,131.13176 L107.428673,131.13176 L97.9286731,114.13176 Z" id="形状结合" fill="#DCDCDC" fill-rule="nonzero"></path>
    </g>
</svg>

<svg width="194" height="194" xmlns="http://www.w3.org/2000/svg"><path d="M96.929 193.132c-53.296 0-96.5-43.205-96.5-96.5 0-53.296 43.204-96.5 96.5-96.5 53.295 0 96.5 43.204 96.5 96.5 0 53.295-43.205 96.5-96.5 96.5zm0-15c45.01 0 81.5-36.489 81.5-81.5s-36.49-81.5-81.5-81.5c-45.012 0-81.5 36.489-81.5 81.5s36.488 81.5 81.5 81.5zm-33.5-38.022c-19.74-10.233-33-29.232-33-50.978 0-32.585 29.773-59 66.5-59 36.727 0 66.5 26.415 66.5 59 0 21.004-12.371 39.444-31.001 49.899v11.1a6 6 0 01-6 6h-57a6 6 0 01-6-6V140.11zm16.069-62.687a4.5 4.5 0 00.222 6.36l8.045 7.502a4.5 4.5 0 106.138-6.582L85.858 77.2a4.5 4.5 0 00-6.36.222zm38.627 0a4.5 4.5 0 00-6.36-.222l-8.045 7.502a4.5 4.5 0 106.138 6.582l8.045-7.502a4.5 4.5 0 00.222-6.36zm-49.696 49.709c11.045 0 20-8.955 20-20 0-11.046-8.955-20-20-20-11.046 0-20 8.954-20 20 0 11.045 8.954 20 20 20zm61 0c11.045 0 20-8.955 20-20 0-11.046-8.955-20-20-20-11.046 0-20 8.954-20 20 0 11.045 8.954 20 20 20zm-31.5-13l-9.5 17h19l-9.5-17z" fill="#DCDCDC" fill-rule="nonzero"/></svg>
